src/images/deploy-docker.svg

<svg xmlns="http://www.w3.org/2000/svg" width="115" height="114" fill="none" viewBox="0 0 115 114"><rect width="115" height="114" fill="#1D4AFF" rx="10"/><path stroke="#fff" stroke-linecap="round" stroke-linejoin="round" stroke-width="3.5" d="M33.4666 69.1653C33.4666 69.1653 33.4035 75.5279 33.4035 82.1306C33.4035 82.4332 31.4629 84.6517 28.3094 84.8918C25.156 85.1319 23.5841 83.6337 23.2784 80.6324C22.9728 77.6312 25.1269 75.4415 27.9504 75.1486C31.0457 74.8508 33.2288 77.4295 33.2288 77.4295"/><path fill-rule="evenodd" stroke="#fff" stroke-linecap="round" stroke-linejoin="round" stroke-width="3.5" d="M37.2799 80.397C37.2674 79.4324 37.545 78.4858 38.0774 77.6777C38.6097 76.8696 39.3728 76.2364 40.2697 75.8587C41.1665 75.4809 42.1566 75.3756 43.114 75.5562C44.0715 75.7368 44.9531 76.1951 45.6467 76.8728C46.3404 77.5506 46.8147 78.4172 47.0095 79.3624C47.2043 80.3077 47.1107 81.2889 46.7407 82.1814C46.3707 83.0739 45.7408 83.8374 44.9313 84.3747C44.1218 84.912 43.1692 85.1989 42.1945 85.199C41.5532 85.2034 40.9172 85.0827 40.3231 84.8437C39.7289 84.6047 39.1881 84.2522 38.7317 83.8062C38.2753 83.3603 37.9122 82.8296 37.6631 82.2446C37.414 81.6597 37.2838 81.0318 37.2799 80.397V80.397Z" clip-rule="evenodd"/><path stroke="#fff" stroke-linecap="round" stroke-linejoin="round" stroke-width="3.5" d="M59.3979 76.4643C59.3979 76.4643 56.2638 74.846 54.168 75.8448C52.0721 76.8436 51.0291 78.1882 51.0194 80.4595C51.0097 82.7309 52.0382 83.8929 54.1195 84.9254C56.2007 85.9578 59.3348 84.5748 59.3348 84.5748"/><path stroke="#fff" stroke-linecap="round" stroke-linejoin="round" stroke-width="3.5" d="M62.7405 85.7608L62.8036 69.6069"/><path stroke="#fff" stroke-linecap="round" stroke-linejoin="round" stroke-width="3.5" d="M63.177 80.522L71.6137 74.9084L65.8162 79.0237L70.7938 85.1991"/><path stroke="#fff" stroke-linecap="round" stroke-linejoin="round" stroke-width="3.5" d="M74.8352 80.2721L83.9753 80.1472C83.9753 80.1472 83.3446 75.0331 79.609 75.0955C77.7169 75.1243 74.3888 76.152 74.1899 79.8975C74.0007 83.3886 76.1887 84.9876 78.5999 85.2613C81.8747 85.6359 83.073 83.7631 83.073 83.7631"/><path stroke="#fff" stroke-linecap="round" stroke-linejoin="round" stroke-width="3.5" d="M87.5654 85.0117L87.6236 74.6682L88.1913 77.972C88.1913 77.972 89.3605 75.7391 91.1022 75.158C92.8439 74.577 95.1822 75.667 95.1822 75.667"/><path fill="#fff" fill-rule="evenodd" d="M34.4466 43.0329C34.4466 43.0329 33.4763 53.4964 39.9919 60.32C46.4152 67.0428 61.1443 64.3056 67.3397 61.6309C78.1779 56.9538 81.4527 44.9777 81.4527 44.9777C81.4527 44.9777 84.2956 45.4579 86.4788 44.4687C88.6619 43.4794 90.195 40.9488 90.36 40.1757C90.5249 39.2585 88.3369 38.0388 86.2993 37.8707C84.8972 37.7507 83.6649 38.6871 82.9032 38.3029C82.3647 38.0292 82.6655 36.2765 81.9814 34.8455C81.0403 32.8623 79.0706 31.1384 78.1779 31.6906C77.4647 32.1276 76.1985 33.7699 75.9268 36.166C75.6066 38.9992 76.3489 42.6103 76.3489 42.6103L34.4466 43.0329Z" clip-rule="evenodd"/><path fill="#fff" fill-rule="evenodd" d="M38.7644 36.7566H44.7269V42.13H38.7644V36.7566Z" clip-rule="evenodd"/><path fill="#fff" fill-rule="evenodd" d="M45.6875 36.603H51.65V41.9764H45.6875V36.603Z" clip-rule="evenodd"/><path fill="#fff" fill-rule="evenodd" d="M45.8572 30.49H51.8197V35.8634H45.8572V30.49Z" clip-rule="evenodd"/><path fill="#fff" fill-rule="evenodd" d="M52.5039 30.2693H58.4664V35.6475H52.5039V30.2693Z" clip-rule="evenodd"/><path fill="#fff" fill-rule="evenodd" d="M52.7173 36.5166H58.6798V41.89H52.7173V36.5166Z" clip-rule="evenodd"/><path fill="#fff" fill-rule="evenodd" d="M59.4851 36.627H65.4476V42.0148H59.4851V36.627Z" clip-rule="evenodd"/><path fill="#fff" fill-rule="evenodd" d="M59.4512 30.4517H65.4136V35.8299H59.4512V30.4517Z" clip-rule="evenodd"/><path fill="#fff" fill-rule="evenodd" d="M59.4172 24.113H65.3846V29.4865H59.4172V24.113Z" clip-rule="evenodd"/><path fill="#fff" fill-rule="evenodd" d="M66.2771 36.5166H72.2396V41.89H66.2771V36.5166Z" clip-rule="evenodd"/></svg>

<svg fill="none" viewBox="0 0 115 114"><rect width="115" height="114" fill="#1D4AFF" rx="10"/><path stroke="#fff" stroke-linecap="round" stroke-linejoin="round" stroke-width="3.5" d="M33.467 69.165s-.063 6.363-.063 12.966c0 .302-1.941 2.52-5.095 2.76-3.153.24-4.725-1.257-5.03-4.259-.306-3 1.848-5.19 4.671-5.483 3.096-.298 5.279 2.28 5.279 2.28"/><path stroke="#fff" stroke-linecap="round" stroke-linejoin="round" stroke-width="3.5" d="M37.28 80.397a4.828 4.828 0 01.797-2.72 4.901 4.901 0 012.193-1.818 4.96 4.96 0 012.844-.303c.958.18 1.84.64 2.533 1.317a4.85 4.85 0 011.363 2.49 4.818 4.818 0 01-.27 2.818 4.88 4.88 0 01-1.809 2.194 4.95 4.95 0 01-2.736.824 4.925 4.925 0 01-1.872-.355 4.884 4.884 0 01-1.591-1.038 4.828 4.828 0 01-1.069-1.561 4.79 4.79 0 01-.383-1.848v0z" clip-rule="evenodd"/><path stroke="#fff" stroke-linecap="round" stroke-linejoin="round" stroke-width="3.5" d="M59.398 76.464s-3.134-1.618-5.23-.62c-2.096 1-3.139 2.344-3.149 4.616-.01 2.27 1.02 3.433 3.1 4.465 2.082 1.033 5.216-.35 5.216-.35m3.405 1.186l.064-16.154m.373 10.915l8.437-5.614-5.798 4.116 4.978 6.175m4.041-4.927l9.14-.125s-.63-5.114-4.366-5.052c-1.892.03-5.22 1.057-5.42 4.802-.188 3.492 2 5.09 4.41 5.364 3.276.375 4.474-1.498 4.474-1.498m4.492 1.249l.059-10.344.567 3.304s1.17-2.233 2.911-2.814c1.742-.581 4.08.509 4.08.509"/><path fill="#fff" fill-rule="evenodd" d="M34.447 43.033s-.97 10.463 5.545 17.287c6.423 6.723 21.152 3.986 27.348 1.31 10.838-4.676 14.113-16.652 14.113-16.652s2.843.48 5.026-.51c2.183-.989 3.716-3.52 3.881-4.292.165-.918-2.023-2.137-4.06-2.305-1.403-.12-2.635.816-3.397.432-.538-.274-.238-2.026-.922-3.457-.94-1.984-2.91-3.708-3.803-3.155-.713.437-1.98 2.079-2.251 4.475-.32 2.833.422 6.444.422 6.444l-41.902.423z" clip-rule="evenodd"/><path fill="#fff" fill-rule="evenodd" d="M38.764 36.757h5.963v5.373h-5.963v-5.373zm6.923-.154h5.963v5.373h-5.962v-5.373zm.17-6.113h5.963v5.373h-5.963V30.49zm6.647-.22h5.962v5.378h-5.962v-5.379zm.213 6.247h5.963v5.373h-5.963v-5.373zm6.768.11h5.963v5.388h-5.963v-5.388zm-.034-6.175h5.963v5.378H59.45v-5.378zm-.034-6.339h5.968v5.373h-5.968v-5.373zm6.86 12.404h5.963v5.373h-5.963v-5.373z" clip-rule="evenodd"/></svg>
